X: 1
T: the Rose
C: Amanda McBroom
D: Bette Midler
%%slurgraces 1
M: 4/4
L: 1/8
K: D
|: DE | "D"F4 zF G>F | "A7"F2 E2 z3 E | "G"D4 "A7"zD E>F | "D"F4 z2 :|
FG | "F#m"A4 zA A>A | "Bm"A2 D2 z3 F | "G"G4 zF ED | "A7"B,A,3 z2 ||
DE | "D"F4 zF G>F | "A7"F2 E2 z3 E | "G"D4 "A7"zD E>D | "D"D4 z2 |]

